Flat-Remix-Dark/apps/scalable/chrome-remote-desktop.svg

<svg xmlns="http://www.w3.org/2000/svg" xmlns:xlink="http://www.w3.org/1999/xlink" width="384pt" height="384pt" version="1.1" viewBox="0 0 384 384"> <defs> <filter id="alpha" width="100%" height="100%" x="0%" y="0%" filterUnits="objectBoundingBox"> <feColorMatrix in="SourceGraphic" type="matrix" values="0 0 0 0 1 0 0 0 0 1 0 0 0 0 1 0 0 0 1 0"/> </filter> <mask id="mask0"> <g filter="url(#alpha)"> <rect width="384" height="384" x="0" y="0" style="fill:rgb(0%,0%,0%);fill-opacity:0.2"/> </g> </mask> <clipPath id="clip1"> <rect width="384" height="384" x="0" y="0"/> </clipPath> <g id="surface5" clip-path="url(#clip1)"> <path style="fill:rgb(0%,0%,0%)" d="M 24 300 L 24 312 C 24 321.972656 32.027344 330 42 330 L 342 330 C 351.972656 330 360 321.972656 360 312 L 360 300 C 360 309.972656 351.972656 318 342 318 L 42 318 C 32.027344 318 24 309.972656 24 300 Z M 24 300"/> </g> <mask id="mask1"> <g filter="url(#alpha)"> <rect width="384" height="384" x="0" y="0" style="fill:rgb(0%,0%,0%);fill-opacity:0.2"/> </g> </mask> <clipPath id="clip2"> <rect width="384" height="384" x="0" y="0"/> </clipPath> <g id="surface8" clip-path="url(#clip2)"> <path style="fill:rgb(0%,0%,0%)" d="M 336 300 L 336 84 L 48 84 L 48 300 Z M 336 300"/> </g> <mask id="mask3"> <g filter="url(#alpha)"> <rect width="384" height="384" x="0" y="0" style="fill:rgb(0%,0%,0%);fill-opacity:0.101961"/> </g> </mask> <clipPath id="clip4"> <rect width="384" height="384" x="0" y="0"/> </clipPath> <g id="surface14" clip-path="url(#clip4)"> <path style="fill:rgb(100.000%,100.000%,100.000%)" d="M 42 59.988281 C 32.027344 59.988281 24 68.015625 24 77.988281 L 24 84 C 24 74.027344 32.027344 66 42 66 L 342 66 C 351.972656 66 360 74.027344 360 84 L 360 77.988281 C 360 68.015625 351.972656 59.988281 342 59.988281 Z M 42 59.988281"/> </g> </defs> <use width="100%" height="100%" x="0" y="0" mask="url(#mask0)" transform="matrix(1.0044643,0,0,1.0044643,-0.10714286,-1.4732143)" xlink:href="#surface5"/> <path d="M 361.50001,305.89286 V 76.875001 c 0,-9.985787 -8.09457,-18.080357 -18.08036,-18.080357 H 42.080358 C 32.09457,58.794644 24,66.889214 24,76.875001 V 305.89286 c 0,9.98579 8.09457,18.08036 18.080358,18.08036 H 343.41965 c 9.98579,0 18.08036,-8.09457 18.08036,-18.08036 z m 0,0" style="fill:rgb(29.803%,29.803%,29.803%)"/> <use width="100%" height="100%" x="0" y="0" mask="url(#mask1)" transform="matrix(1.0044643,0,0,1.0044643,-0.10714286,-1.4732143)" xlink:href="#surface8"/> <use width="100%" height="100%" x="0" y="0" mask="url(#mask3)" transform="matrix(1.0044643,0,0,1.0044643,-0.10714286,-1.4732143)" xlink:href="#surface14"/> <g transform="matrix(0.5295543,0,0,0.5295543,90.325575,90.32557)"> <g> <path d="m 341.53906,113.75391 c -236.35937,188.83203 -118.17969,94.41406 0,0 z m 0,0 -136.62109,0.0547 46.32812,130.70703 -67.7539,116.02344 c 2.8164,0.13672 5.65625,0.21094 8.50781,0.21094 93.19922,0 168.75,-75.55078 168.75,-168.75 0,-28.24219 -6.94922,-54.85547 -19.21094,-78.24609 z" style="fill:rgb(100.000%,78.039%,18.823%)"/> <path d="m 192,23.25 c -60.66797,0 -113.851562,32.023438 -143.59375,80.08203 L 116.44542,214.79514 192,112.75391 c 4.10937,0.0352 8.21094,0.38672 12.26172,1.05468 l 137.27734,-0.0547 C 313.33203,59.957031 256.95703,23.25 192,23.25 Z M 48.386719,103.36328 c -40.925781,195.75781 -20.460938,97.87891 0,0 z" style="fill:rgb(83.137%,9.803%,9.803%)"/> <path d="M 48.40625,103.33203 C 32.460938,129.09766 23.25,159.47266 23.25,192 c 0,90.34375 70.996094,164.10547 160.24219,168.53906 l 67.7539,-116.02344 C 236.22656,261.48828 214.66406,271.21875 192,271.24609 l -75.55458,-56.45095 z" style="fill:rgb(4.705%,63.137%,36.862%)"/> </g> <path d="M 341.55415,113.71483 230.072,149.55823 201.35217,113.79676 Z" style="opacity:0.3;fill-opacity:0.95295697"/> <path d="m 183.48828,360.55469 25.32008,-114.33246 45.36749,-6.74548 z" style="opacity:0.3;fill-opacity:0.95295697"/> <path d="M 48.277344,103.33594 136.9627,179.80768 121.40623,222.9552 Z" style="opacity:0.3;fill-opacity:0.95295697"/> <path style="fill:rgb(100.000%,100.000%,100.000%)" d="m 271.24609,192 c 0,43.76562 -35.48047,79.24609 -79.24609,79.24609 -43.76563,0 -79.24609,-35.48047 -79.24609,-79.24609 0,-43.76563 35.48046,-79.24609 79.24609,-79.24609 43.76562,0 79.24609,35.48046 79.24609,79.24609 z m 0,0"/> <path style="fill:rgb(21.176%,48.235%,94.117%)" d="m 257.39062,192 c 0,36.11328 -29.27734,65.39062 -65.39062,65.39062 -36.11328,0 -65.39062,-29.27734 -65.39062,-65.39062 0,-36.11328 29.27734,-65.39062 65.39062,-65.39062 36.11328,0 65.39062,29.27734 65.39062,65.39062 z m 0,0"/> </g> </svg>

<svg width="512" height="512" version="1.1" viewBox="0 0 384 384" xmlns="http://www.w3.org/2000/svg"><defs><clipPath><rect width="384" height="384"/></clipPath><clipPath><rect width="384" height="384"/></clipPath><clipPath><rect width="384" height="384"/></clipPath></defs><path d="m361.5 305.89v-229.02c0-9.9858-8.0946-18.08-18.08-18.08h-301.34c-9.9858 0-18.08 8.0946-18.08 18.08v229.02c0 9.9858 8.0946 18.08 18.08 18.08h301.34c9.9858 0 18.08-8.0946 18.08-18.08z" fill="#4b4b4b"/><rect x="48.107" y="82.902" width="289.29" height="216.96" opacity=".3" style="paint-order:markers stroke fill"/><g transform="matrix(.52955 0 0 .52955 90.326 90.326)"><path d="m341.54 113.75c-236.36 188.83-118.18 94.414 0 0zm0 0-136.62 0.0547 46.328 130.71-67.754 116.02c2.8164 0.13672 5.6562 0.21094 8.5078 0.21094 93.199 0 168.75-75.551 168.75-168.75 0-28.242-6.9492-54.855-19.211-78.246z" fill="#ffc62f"/><path d="m192 23.25c-60.668 0-113.85 32.023-143.59 80.082l68.039 111.46 75.555-102.04c4.1094 0.0352 8.2109 0.38672 12.262 1.0547l137.28-0.0547c-28.207-53.797-84.582-90.504-149.54-90.504zm-143.61 80.113c-40.926 195.76-20.461 97.879 0 0z" fill="#d31818"/><path d="m48.406 103.33c-15.945 25.766-25.156 56.141-25.156 88.668 0 90.344 70.996 164.11 160.24 168.54l67.754-116.02c-15.02 16.973-36.582 26.703-59.246 26.73l-75.555-56.451z" fill="#0ba05d"/><g fill-opacity=".95296"><path d="m341.55 113.71-111.48 35.843-28.72-35.761z" opacity=".3"/><path d="m183.49 360.55 25.32-114.33 45.367-6.7455z" opacity=".3"/><path d="m48.277 103.34 88.685 76.472-15.556 43.148z" opacity=".3"/></g><path d="m271.25 192c0 43.766-35.48 79.246-79.246 79.246-43.766 0-79.246-35.48-79.246-79.246 0-43.766 35.48-79.246 79.246-79.246 43.766 0 79.246 35.48 79.246 79.246z" fill="#fff"/><path d="m257.39 192c0 36.113-29.277 65.391-65.391 65.391s-65.391-29.277-65.391-65.391 29.277-65.391 65.391-65.391 65.391 29.277 65.391 65.391z" fill="#357aef"/></g><path transform="scale(.75)" d="m32 397.86v10c0 13.314 10.793 24.107 24.107 24.107h401.79c13.314 0 24.107-10.793 24.107-24.107v-10c0 13.314-10.793 24.107-24.107 24.107h-401.79c-13.314 0-24.107-10.793-24.107-24.107z" fill="#f6f6f6" opacity=".3" stroke-width="1.3333"/><path transform="scale(.75)" d="m56.107 78.393c-13.314 0-24.107 10.793-24.107 24.107v10c0-13.314 10.793-24.107 24.107-24.107h401.79c13.314 0 24.107 10.793 24.107 24.107v-10c0-13.314-10.793-24.107-24.107-24.107h-401.79z" fill="#090000" opacity=".3" stroke-width="1.3333"/></svg>
